X:1
T:Speak Just a Word
T:Speak Just a Word
T:Edward Columbus Avis
T:Edward Columbus Avis, 1891
T:Public Domain Courtesy of the Cyber Hymnal™
T:Public Domain Courtesy of the Cyber Hymnal™
C:Edward Columbus Avis
Z:Public Domain
Z:Courtesy of the Cyber Hymnal™
%%score ( 1 2 ) ( 3 4 )
L:1/8
Q:1/4=100
M:4/4
K:Eb
V:1 treble 
V:2 treble 
V:3 bass 
V:4 bass 
V:1
 [EG]2 [EG]>[FA] [GB]2 [Ge]2 | [Bd]2 [Ac]2 [GB]4 | [EB]2 [DF]>[EG] [FA]2 z2 | %3
w: 1.~Tell what the Lord has|done for you,|Speak just a word,|
w: 2.~Ear- ly be- gin to|bear the cross,|Speak just a word,|
w: 3.~Tell if the Lord has|cleansed your sin,|Speak just a word,|
w: 4.~Fear not the world, nor|heed its frown,|Speak just a word,|
 [GB]2 E>[DF] [EG]2 z2 | [EG]2 [EG]>[FA] [GB]2 [Ge]2 | [Bd]2 [Ac]2 [GB]4 | E2 E>[EF] [EG]2 E2 | %7
w: speak just a word;|Stand for the right, be|brave and true,|Speak just a word for|
w: speak just a word;|They who de- ny Him|suf- fer loss,|Speak just a word for|
w: speak just a word;|It may to Him some|oth- ers win,|Speak just a word for|
w: speak just a word;|They who en- dure shall|wear the crown,|Speak just a word for|
 [DF]4 E2 z2 ||"^Refrain" [DF]2 [DF]>[EG] [FA]4 | [EG]2 [EG]>[FA] [GB]4 | %10
w: Je- sus.|||
w: Je- sus.|||
w: Je- sus.|Speak just a word,|speak just a word,|
w: Je- sus.|||
 [E=A]2 [EA]>[EA] [EG]2 [EA]2 | [DB]6 z2 | [EG]2 [EG]>[FA] [GB]2 [Ge]2 | [Bd]2 [Ac]2 [GB]4 | %14
w: ||||
w: ||||
w: Glad- ly His love pro-|claim;|Tell what the Lord has|done for you,|
w: ||||
 E2 E>[EF] [EG]2 E2 | [DF]4 E2 z2 |] %16
w: ||
w: ||
w: Speak just a word for|Je- sus.|
w: ||
V:2
 x8 | x8 | x8 | x2 E3/2 x9/2 | x8 | x8 | E2 E3/2 x E2 x3/2 | x4 E2 x2 || x8 | x8 | x8 | x8 | x8 | %13
 x8 | E2 E3/2 x E2 x3/2 | x4 E2 x2 |] %16
V:3
 [E,B,]2 [E,B,]>[E,B,] [E,E]2 [E,B,]2 | (A,B,) (CD) [E,E]4 | [E,G,]2 [B,,B,]>[B,,B,] [B,,B,]2 z2 | %3
 [E,B,]2 [E,G,]>[E,A,] [E,B,]2 z2 | [E,B,]2 [E,B,]>[E,B,] [E,E]2 [E,B,]2 | (A,B,) (CD) [E,E]4 | %6
 [E,G,]2 [E,G,]>[E,A,] [E,B,]2 [E,G,]2 | (B,2 A,2) [E,G,]2 z2 || [B,,B,]2 [B,,B,]>[B,,B,] B,4 | %9
 [E,B,]2 [E,B,]>[E,B,] B,4 | [F,C]2 [F,C]>[F,C] [F,B,]2 [F,C]2 | [B,,B,]6 z2 | %12
 [E,B,]2 [E,B,]>[E,B,] [E,E]2 [E,B,]2 | (A,B,) (CD) [E,E]4 | %14
 [E,G,]2 [E,G,]>[E,A,] [E,B,]2 [E,G,]2 | (B,2 A,2) [E,G,]2 z2 |] %16
V:4
 x8 | E,2 E,2 x4 | x8 | x8 | x8 | E,2 E,2 x4 | x8 | B,,4 x4 || x4 (D,2 B,,2) | x4 (G,2 E,2) | x8 | %11
 x8 | x8 | E,2 E,2 x4 | x8 | B,,4 x4 |] %16

